build/img/background/cat-pro.svg

<svg width="268" height="112" viewBox="0 0 268 112" fill="none" xmlns="http://www.w3.org/2000/svg">
<g clip-path="url(#clip0_2403_776)">
<path d="M246.2 11.5999C248.509 7.92605 251.578 4.7891 255.2 2.39989C257.2 0.99989 258.4 0.99989 259.6 3.59989C261.2 7.39989 262.6 11.3999 261.4 15.5999C261.182 16.3122 261.14 17.0671 261.28 17.799C261.419 18.5309 261.735 19.2177 262.2 19.7999C263.4 21.3999 264.4 22.9999 265.4 24.3999C266.761 26.1274 267.644 28.1825 267.96 30.359C268.276 32.5354 268.014 34.7567 267.2 36.7999C266.466 38.7835 266.327 40.9384 266.8 42.9999C267.2 44.9799 267.2 47.0199 266.8 48.9999C266.638 50.4827 266.038 51.8837 265.076 53.0237C264.115 54.1637 262.835 54.991 261.4 55.3999C258.842 55.8867 256.559 57.3137 255 59.3999C254.811 59.7071 254.546 59.9605 254.231 60.1357C253.916 60.3108 253.561 60.4018 253.2 60.3999C250.8 60.7999 244.8 55.3999 244.8 52.9999V51.7999C245 44.5999 244.6 43.9999 238 40.9999C236.619 40.5127 235.381 39.6877 234.4 38.5999C233.2 36.9999 231.6 37.1999 229.8 37.7999C228 38.3999 227 39.5999 227.2 41.5999C227.803 46.4416 228.004 51.325 227.8 56.1999C227.813 56.7563 227.95 57.3027 228.2 57.7999C234.4 66.7999 236.8 77.3999 239.8 87.5999C242.2 95.3999 246.6 99.5999 254.6 100.2C255.88 100.302 257.151 100.503 258.4 100.8C260.044 101.064 261.57 101.815 262.783 102.956C263.995 104.097 264.837 105.575 265.2 107.2C266.6 111.4 265.8 112.4 261.6 112.4H248.6C246.917 112.485 245.267 111.911 244 110.8C241.976 109.092 239.677 107.739 237.2 106.8C234.462 105.789 232.093 103.977 230.4 101.6C228.057 98.3269 225.376 95.3102 222.4 92.5999C216.8 86.7999 210.8 81.1999 205.6 75.1999C201.641 71.1115 199.358 65.6885 199.2 59.9999C199.2 58.1999 198.8 57.3999 196.8 58.1999C196.201 58.5798 195.509 58.7874 194.8 58.7999C189.2 58.7999 186.4 62.1999 184.4 67.1999C182.6 71.3999 180.2 75.3999 178 79.5999C176.753 82.229 176.071 85.0907 176 87.9999C176 92.7999 177.2 94.3999 181.6 95.9999C184.4 96.9999 187 97.9999 188.4 100.8C190 104 189.6 104.8 186.2 105H172.6C171.816 105.078 171.027 104.907 170.346 104.512C169.664 104.117 169.123 103.518 168.8 102.8L165.2 96.7999C164.139 95.2344 163.459 93.4419 163.216 91.5663C162.973 89.6907 163.173 87.7842 163.8 85.9999C164.666 82.5269 164.734 78.9031 164 75.3999C163.496 72.9601 163.539 70.4389 164.127 68.0179C164.715 65.597 165.833 63.3367 167.4 61.3999C168.6 59.9999 168.6 59.3999 166.6 58.9999C158.422 57.2627 150.493 54.5079 143 50.7999C142.947 50.7999 142.896 50.7788 142.859 50.7413C142.821 50.7038 142.8 50.6529 142.8 50.5999C136.4 48.1999 135.2 48.5999 133.4 55.1999C131.8 60.7999 130.2 66.3999 129 72.1999C127.6 78.5999 129.2 84.5999 131.2 90.5999C132 92.9999 134.4 92.7999 136.2 93.3999C140.2 94.5999 143.6 96.1999 145.2 100.4C146.6 103.6 146.4 104 143 104C139.6 104 136.2 103.8 132.6 104C129.562 104.055 126.597 103.067 124.2 101.2C114.6 94.7999 111.8 84.9999 111 74.3999C110.6 67.7999 107 62.5999 102.8 57.5999C102 56.5999 101.2 56.1999 100 56.9999C95.707 59.367 91.2249 61.3739 86.6 62.9999C76.9485 66.4078 68.4793 72.5168 62.2 80.5999C59.8553 83.5499 58.3368 87.07 57.8 90.7999C57.2 94.3999 58.2 95.9999 61.8 96.9999C65.4 97.9999 67.2 99.9999 67.6 103.8C67.8 105.4 67.2 106.2 65.6 106.2H49.4C48.8698 106.162 48.3566 105.997 47.9039 105.719C47.4512 105.44 47.0725 105.056 46.8 104.6C44.2877 101.489 42.9433 97.5978 43 93.5999C42.8951 86.6898 43.4982 79.7871 44.8 72.9999C45.067 70.9673 45.8259 69.0305 47.0108 67.3576C48.1958 65.6846 49.7711 64.3261 51.6 63.3999C63.4 57.7999 69.6 47.1999 75.2 36.1999C76.4 33.9999 75.4 33.5999 73.4 33.7999C67.8027 34.5769 62.4994 36.7809 58 40.1999C52.1084 44.4976 46.5585 49.2451 41.4 54.3999C35.8993 59.9872 28.6054 63.4571 20.8 64.1999C6.20002 64.9999 -0.599978 56.7999 2.18973e-05 43.5999C0.134147 39.0991 1.83132 34.7854 4.80002 31.3999C5.83206 30.0619 7.23949 29.0619 8.84256 28.5275C10.4456 27.9931 12.1716 27.9487 13.8 28.3999C16.8 29.1999 17.6 30.7999 16.4 33.7999C15.8 34.9999 15 35.9999 14.4 37.1999C13.5372 38.4258 12.8631 39.7741 12.4 41.1999C10.2 47.1999 13.2 51.3999 19.4 51.9999C26 52.5999 31.4 49.7999 36.4 45.7999C42.4239 40.9764 47.8014 35.3972 52.4 29.1999C55.8385 24.6747 60.1682 20.9025 65.1217 18.1161C70.0751 15.3298 75.5472 13.5886 81.2 12.9999C85.8 12.3999 89.8 10.3999 94.2 9.19989C102.429 6.6911 110.998 5.47661 119.6 5.59989C123.584 5.76582 127.553 5.01308 131.2 3.39989C141 -0.60011 151.2 -0.60011 161.4 1.39989C169.4 2.99989 177.4 4.99989 185.2 6.99989C189.842 7.86484 194.615 7.72847 199.2 6.59989C207.977 4.37496 216.956 3.03494 226 2.59989C231.925 2.31162 237.83 3.47897 243.2 5.99989C247.2 7.79989 247.2 7.79989 246.2 11.5999Z" fill="black"/>
</g>
<defs>
<clipPath id="clip0_2403_776">
<rect width="268" height="112" fill="white"/>
</clipPath>
</defs>
</svg>

<svg width="268" height="112" fill="none" xmlns="http://www.w3.org/2000/svg"><g clip-path="url(#a)"><path d="M246.2 11.6a30.402 30.402 0 0 1 9-9.2c2-1.4 3.2-1.4 4.4 1.2 1.6 3.8 3 7.8 1.8 12a4.577 4.577 0 0 0 .8 4.2c1.2 1.6 2.2 3.2 3.2 4.6a12.541 12.541 0 0 1 1.8 12.4 10.865 10.865 0 0 0-.4 6.2c.4 1.98.4 4.02 0 6a7.502 7.502 0 0 1-5.4 6.4 10.422 10.422 0 0 0-6.4 4 2.103 2.103 0 0 1-1.8 1c-2.4.4-8.4-5-8.4-7.4v-1.2c.2-7.2-.2-7.8-6.8-10.8a8.783 8.783 0 0 1-3.6-2.4c-1.2-1.6-2.8-1.4-4.6-.8-1.8.6-2.8 1.8-2.6 3.8.603 4.842.804 9.725.6 14.6.013.556.15 1.103.4 1.6 6.2 9 8.6 19.6 11.6 29.8 2.4 7.8 6.8 12 14.8 12.6 1.28.102 2.551.303 3.8.6a8.322 8.322 0 0 1 6.8 6.4c1.4 4.2.6 5.2-3.6 5.2h-13a6.481 6.481 0 0 1-4.6-1.6 23.413 23.413 0 0 0-6.8-4 14.525 14.525 0 0 1-6.8-5.2 57.223 57.223 0 0 0-8-9c-5.6-5.8-11.6-11.4-16.8-17.4a22.758 22.758 0 0 1-6.4-15.2c0-1.8-.4-2.6-2.4-1.8a3.861 3.861 0 0 1-2 .6c-5.6 0-8.4 3.4-10.4 8.4-1.8 4.2-4.2 8.2-6.4 12.4a20.785 20.785 0 0 0-2 8.4c0 4.8 1.2 6.4 5.6 8 2.8 1 5.4 2 6.8 4.8 1.6 3.2 1.2 4-2.2 4.2h-13.6a3.763 3.763 0 0 1-3.8-2.2l-3.6-6a12.1 12.1 0 0 1-1.4-10.8c.866-3.473.934-7.097.2-10.6a16.842 16.842 0 0 1 3.4-14c1.2-1.4 1.2-2-.8-2.4a100.114 100.114 0 0 1-23.6-8.2.198.198 0 0 1-.141-.059.198.198 0 0 1-.059-.141c-6.4-2.4-7.6-2-9.4 4.6-1.6 5.6-3.2 11.2-4.4 17-1.4 6.4.2 12.4 2.2 18.4.8 2.4 3.2 2.2 5 2.8 4 1.2 7.4 2.8 9 7 1.4 3.2 1.2 3.6-2.2 3.6-3.4 0-6.8-.2-10.4 0a13.278 13.278 0 0 1-8.4-2.8c-9.6-6.4-12.4-16.2-13.2-26.8-.4-6.6-4-11.8-8.2-16.8-.8-1-1.6-1.4-2.8-.6a88.639 88.639 0 0 1-13.4 6 53.42 53.42 0 0 0-24.4 17.6 21.26 21.26 0 0 0-4.4 10.2c-.6 3.6.4 5.2 4 6.2s5.4 3 5.8 6.8c.2 1.6-.4 2.4-2 2.4H49.4a3.308 3.308 0 0 1-2.6-1.6 17.121 17.121 0 0 1-3.8-11c-.105-6.91.498-13.813 1.8-20.6a12.601 12.601 0 0 1 6.8-9.6c11.8-5.6 18-16.2 23.6-27.2 1.2-2.2.2-2.6-1.8-2.4A32.94 32.94 0 0 0 58 40.2a141.246 141.246 0 0 0-16.6 14.2 33.34 33.34 0 0 1-20.6 9.8C6.2 65-.6 56.8 0 43.6a19.38 19.38 0 0 1 4.8-12.2 8.5 8.5 0 0 1 9-3c3 .8 3.8 2.4 2.6 5.4-.6 1.2-1.4 2.2-2 3.4a15.001 15.001 0 0 0-2 4c-2.2 6 .8 10.2 7 10.8 6.6.6 12-2.2 17-6.2a89.878 89.878 0 0 0 16-16.6A41.58 41.58 0 0 1 81.2 13c4.6-.6 8.6-2.6 13-3.8a83.02 83.02 0 0 1 25.4-3.6 26.001 26.001 0 0 0 11.6-2.2c9.8-4 20-4 30.2-2 8 1.6 16 3.6 23.8 5.6a33.16 33.16 0 0 0 14-.4 135.582 135.582 0 0 1 26.8-4A36.32 36.32 0 0 1 243.2 6c4 1.8 4 1.8 3 5.6Z" fill="#000"/></g><defs><clipPath id="a"><path fill="#fff" d="M0 0h268v112H0z"/></clipPath></defs></svg>
